X:6016
T:Foul Weather Call
R:Hornpipe
C:Trad.
O:England, Sussex
Z:Paul Hardy's Session Tunebook 2015 (see www.paulhardy.net). Creative Commons cc by-nc-sa licenced.
M:4/4
L:1/8
Q:1/4=140
K:D
|:"G"gfed "A"e2a2|"G"gfed "D"dcBA|d2A2 "G"BcdB|"Em"g2f2 "A"e4|
"G"gfed "A"e2a2|"G"gfed "D"dcBA|d3A "G"BcdG|"A"F2E2 "D"D4:|
|:"G"GFED "D"A2A2|"Bm"Bcde dcBA|"D"d2A2 "Bm"BcdB|"Em"g2f2 "A"e4|
"G"gfed "A"e2a2|"G"gfed "D"dcBA|d3A "G"BcdG|"A7"F2E2 "D"D4:|

